!!!!SEGMENT: pl-wumfc--r282--002-010_paderewski-ignacy-jan--exercise-10.krn
!!!cenid: 18xx:3185
!!!COM: Paderewski, Ignacy Jan
!!!COM-rismid: pe30029943
!!!CDT: 1860/11/18-1941/06/29
!!!CNT: Polish
!!!GTL: [Exercises 2]
!!!OTL: [Exercise] 10
!!!OMV: 010
!!!PDT:
!!!AGN:
!!!SMS-siglum: PL-Wumfc
!!!SMS-shelfmark: R282
!!!SMS-shelfwork: 002-010 G
!!!SMS-variant:
!!!SMS-altvar:
!!!NIFC-rismid: 1001158933
!!!URL-scan: http://repozytorium.nifc.pl/skany/pl-wumfc--r282
!!!ONB-nifc: UWAGA: druga grupa ćwiczeń od skanu 0008
!!!key: G
**kern	**kern
*part2	*part1
*group1	*group1
*staff2	*staff1
*I"[Pianoforte]	*I"[Pianoforte]
*I'	*I'
*Ipiano	*Ipiano
*ICklav	*ICklav
*clefF4	*clefG2
*k[]	*k[]
*C:	*C:
*M	*M
*	*^
!	!LO:TX:b:t=C. f	!
2.G\	4g/	2B\
.	4gg/	.
!	!LO:SIC:v:s=4ff#/	!
.	4ff/	4ryy
=1	=1	=1
2.G\	4ee/	2.e\
.	4b/	.
.	4cc/	.
!LO:SIC:v:s=2.F#\	!	!LO:SIC:v:s=2.f#\
2.F\	4dd/	2.f\
.	4ee/	.
.	4dd/	.
2.E\	4cc/	2.g\
.	4g/	.
.	4a/	.
!	!	!LO:SIC:v:s=2.f#\
2.D\	4b/	2.f\
.	4cc/	.
.	4dd/	.
=2	=2	=2
2.G\	4b/	2.g\
.	4a/	.
.	4b/	.
2.A\	4cc/	2.e\
.	4b/	.
.	4cc/	.
2.B;\	2.dd;/	2.d;>\
2.B\	4gg/	2.d\
!	!LO:SIC:v:s=4ff#/	!
.	4ff/	.
.	4ee/	.
!!linebreak:original
=3	=3	=3
2.B\	4dd/	[>2.g\
.	4ee/	.
!	!LO:SIC:v:s=4ff#/	!
.	4ff/	.
2.B\	4gg/	2.g\]
.	4dd/	.
.	4ee/	.
!	!LO:SIC:v:s=4ff#/	!
2.A\	4ff/	2.a\
.	4cc#X/	.
.	4dd#X/	.
2.G\	4ee/	[>2.e\
.	4dd#/	.
.	4ee/	.
=4	=4	=4
2.c\	4a/	2.e\]
.	4g#X/	.
.	4a/	.
2.B\	4b/	2.d\
.	4cc/	.
.	4ddn/	.
2.A;\	2.cc;/	2.e;\
2.G\	4ee/	2.gn\
.	4dd/	.
.	4ee/	.
=5	=5	=5
2.A\	4cc/	2.e\
.	4b/	.
.	4cc/	.
2.B\	4dd/	2.d\
!	!LO:SIC:v:s=4f#/	!
.	4f/	.
.	4g/	.
2.A\	4a/	2.c\
.	4b/	.
.	4cc/	.
2.G\	4dd/	2.B\
.	4ee/	.
.	4dd/	.
=6	=6	=6
2.E\	4cc/	2.e\
.	4dd/	.
.	4cc/	.
!LO:SIC:v:s=2.F#\	!	!
2.F\	4dd/	[2.d\
.	4ee/	.
.	4dd/	.
!LO:N:vis=2	!	!
2.G;\	2.b;/	2.d;\]
!	!	!LO:SIC:v:s=2.f#\
2.d\	4a/	2.f\
.	4g/	.
.	4a/	.
=7	=7	=7
2.B\	4b/	2.g\
.	4cc/	.
.	4dd/	.
2.G\	4ee/	[>2.e\
.	4dd/	.
.	4ee/	.
2.A\	4cc/	2.e\]
.	4b/	.
.	4cc/	.
2.c\	4ee/	2.c\
.	4dd/	.
.	4ee/	.
*	*v	*v
=8	=8
*^	*
!	!	!LO:SIC:v:s=4ff#/
2.d/	2.B\	4ff/
!	!	!LO:SIC:v:s=4f#/
.	.	4f/
.	.	4g/
2.c/	2.A\	4a/
.	.	4b/
.	.	4cc/
2.d;/	2.G\	2.b;/
4ryy	4ryy	4ryy
2ryy	2ryy	2ryy
*v	*v	*
==	==
*-	*-
!!!system-decoration: [g1]
!!!RDF**kern: > = above
!!!RDF**kern: < = below
!!!ENC: Katarzyna Serwa
!!!END: 2021-11-16
!!!ENC: Anastazja Marusiak
!!!END: 2021-11-12
